icons/desktop/16/svg/users-16.svg

<svg width="16" height="16" viewBox="0 0 16 16" fill="none" xmlns="http://www.w3.org/2000/svg">
<path d="M11.543 8.99121C12.221 9.01321 12.882 9.04847 13.501 9.10547C14.9229 9.23648 15.9989 10.4491 15.999 11.877V13C15.999 14.105 15.106 15 14.002 15H11.9082C12.2491 14.5691 12.4899 14.0599 12.5879 13.5H14.002C14.276 13.5 14.499 13.276 14.499 13V11.877C14.4989 11.2192 14.001 10.6578 13.3643 10.5996C13.0503 10.5706 12.733 10.5542 12.416 10.5342C12.229 9.95819 11.938 9.43021 11.543 8.99121Z" fill="black"/>
<path fill-rule="evenodd" clip-rule="evenodd" d="M5.57324 8.96191C6.66515 8.96192 7.69355 9.01555 8.64648 9.10254C10.0683 9.23275 11.1436 10.4471 11.1436 11.875V12.9199C11.1426 13.8599 10.4379 14.6576 9.50488 14.7676C8.05802 14.9386 6.73518 14.999 5.57227 14.999C4.13433 14.999 2.80915 14.9066 1.61719 14.7656C0.690188 14.6556 0 13.8568 0 12.9238V11.8789C3.89245e-06 10.4389 1.10214 9.23059 2.53613 9.10059C3.63607 9.0016 4.65333 8.96387 5.57129 8.96387L5.57324 8.96191ZM5.57031 10.4629C4.60531 10.4629 3.62992 10.5068 2.66992 10.5938C2.01295 10.6528 1.49805 11.217 1.49805 11.8779V12.9229C1.49805 13.1019 1.62702 13.2574 1.79102 13.2764C3.04099 13.4244 4.31234 13.499 5.57031 13.499C6.82221 13.499 8.08623 13.4253 9.32812 13.2793C9.50409 13.2583 9.6416 13.1009 9.6416 12.9209V11.876C9.6416 11.218 9.14384 10.6557 8.50684 10.5977C7.77786 10.5309 7.03985 10.4895 6.30469 10.4727L5.57031 10.4629Z" fill="black"/>
<path fill-rule="evenodd" clip-rule="evenodd" d="M5.57031 2C7.17315 2.00019 8.47168 3.29946 8.47168 4.90234C8.47149 6.50507 7.17304 7.80353 5.57031 7.80371C3.96743 7.80371 2.66815 6.50519 2.66797 4.90234C2.66797 3.29934 3.96731 2 5.57031 2ZM5.57031 3.5C4.79731 3.5 4.16797 4.12934 4.16797 4.90234C4.16816 5.67519 4.79743 6.30371 5.57031 6.30371C6.34304 6.30352 6.97149 5.67507 6.97168 4.90234C6.97168 4.12946 6.34316 3.50019 5.57031 3.5Z" fill="black"/>
<path d="M10.4268 2C12.0298 2 13.3291 3.29934 13.3291 4.90234C13.3289 6.50519 12.0296 7.80371 10.4268 7.80371C9.95496 7.80365 9.51495 7.68037 9.12109 7.48047C9.41409 7.07847 9.63041 6.62377 9.77441 6.13477C9.97028 6.23867 10.1899 6.30365 10.4268 6.30371C11.1996 6.30371 11.8289 5.67519 11.8291 4.90234C11.8291 4.12934 11.1998 3.5 10.4268 3.5C10.19 3.50006 9.97025 3.56508 9.77441 3.66895C9.63043 3.181 9.41404 2.72618 9.12109 2.32422C9.515 2.12427 9.95488 2.00006 10.4268 2Z" fill="black"/>
</svg>

<!-- This Source Code Form is subject to the terms of the Mozilla Public
   - License, v. 2.0. If a copy of the MPL was not distributed with this
   - file, You can obtain one at http://mozilla.org/MPL/2.0/. -->
<svg xmlns="http://www.w3.org/2000/svg" width="16" height="16" fill="context-fill" fill-opacity="context-fill-opacity" viewBox="0 0 16 16">
    <path d="M11.543 8.991c.678.022 1.339.057 1.958.114 1.422.131 2.498 1.344 2.498 2.772V13c0 1.105-.893 2-1.997 2h-2.094c.341-.43.582-.94.68-1.5h1.414a.5.5 0 0 0 .497-.5v-1.123c0-.658-.498-1.22-1.135-1.277-.314-.03-.631-.046-.948-.066a4.3 4.3 0 0 0-.873-1.543" />
    <path fill-rule="evenodd" d="M5.573 8.962c1.092 0 2.12.054 3.073.14 1.422.13 2.498 1.345 2.498 2.773v1.045a1.863 1.863 0 0 1-1.64 1.848 33.5 33.5 0 0 1-7.887-.002A1.85 1.85 0 0 1 0 12.924v-1.045A2.793 2.793 0 0 1 2.536 9.1a34 34 0 0 1 3.035-.137zm-.003 1.5c-.965 0-1.94.045-2.9.132a1.3 1.3 0 0 0-1.172 1.284v1.045c0 .179.129.334.293.353a32.3 32.3 0 0 0 7.537.003.36.36 0 0 0 .314-.358v-1.045c0-.658-.498-1.22-1.135-1.278a32 32 0 0 0-2.202-.125zM5.57 2a2.902 2.902 0 1 1 0 5.803A2.902 2.902 0 0 1 5.57 2m0 1.5c-.773 0-1.402.63-1.402 1.402 0 .773.63 1.402 1.402 1.402.773 0 1.401-.629 1.402-1.402S6.343 3.5 5.57 3.5" clip-rule="evenodd" />
    <path d="M10.427 2a2.902 2.902 0 1 1 0 5.804c-.472 0-.912-.124-1.306-.324.293-.402.51-.856.653-1.345.196.104.416.169.653.169.773 0 1.402-.629 1.402-1.402S11.2 3.5 10.427 3.5c-.237 0-.457.065-.653.169a4.4 4.4 0 0 0-.653-1.345c.394-.2.834-.324 1.306-.324" />
</svg>
